X:975
T:The Woodcock
N:"Collected by Dillon"
B:O'Neill's 975
Z:Transcribed by Dan G. Petersen, dangp@post6.tele.dk
M:6/8
L:1/8
K:G
DGG BGG|dGG BGG|DGG BAG|FAA BGE|
DGG BGG|dGG BGG|DGG ABc|1 BGA GED:|2 BGG G2||
((3ABc)|d2g B2d|(A/B/c).A BGE|DGG {c}BAG|FAA ABc|
d2g B2d|(A/B/c).A BGE|DGG ABc|BGG GA(B/c/)||
dgf edc|(A/B/c).A BGE|DGG {c}BAG|FAA ABc|
dgf edc|(A/B/c).A BGE|DGG ABc|BGG G2|]


